X:1
T:E minor Amos Pilsbury, 1799 Revised by James P. Carrell, 1821
T:Charles Wesley, 1759 86. 86. 86. 86. (C. M. D.)
T:Pilgrim
T:Transcribed from Songs of Zion, 1821
%%score [ 1 2 3 4 ]
L:1/8
M:4/4
K:C
V:1 treble nm="Tr." snm="Tr."
V:2 treble nm="C." snm="C."
V:3 treble-8 nm="T." snm="T."
V:4 bass nm="B." snm="B."
V:1
"^This earth, he cries, is not my place,  I  seek  my  place  in heaven:""^How happy every  child  of grace  Who knows his sins forgiven!""^1. {" A4 | %1
 B2[Q:1/4=120] c2 A4 | (G2 A2) d2 c2 | d4 e4 | e2 d2 c2 B2 |"^}" A4 :| %6
"^A  country far  from  mortal sight;  Yet,  O!  by faith  I  see   The" A4 | E2 G2 A4 | %8
 (G2 c2) B2 A2 | G4 E4 | A2 c2 A2 EF | G4 c4 | %12
"^land  of   rest,   the  saints’  de – light,   The heaven prepar’d for  me." c2 dc A4 | %13
 (G2 A2) d2 c2 | d4 e4 | e2 d2 c2 B2 | A8 | %17
V:2
"^Nor  can   its  hap– pi– ness  or    woe   Provoke my hope or fear:""^A    stranger  in   the   world  be – low,    I      calmly  sojourn  here,""^2. {" E4 | %1
 E2 G2 A4 | (G2 F2) G2 A2 | G4 A4 | A2 B2 G2 E2 |"^}" E4 :| %6
"^Its     evils   in    a    moment  end,   Its joys as soon are past;  But," A4 | A2 G2 E4 | %8
 G4 G2 A2 | G4 A4 | E2 E2 E2 EF | G4 E4 | %12
"^O!  The  bliss   to     which   I    tend     E   –   ter – nal – ly  shall   last." A2 AB A4 | %13
 (G2 F2) G2 A2 | G4 E4 | A2 B2 G2 E2 | E8 | %17
V:3
"^While in the flesh, my hope and love, My heart and soul are there:""^To   that    Je – ru – sa – lem   a – bove  With   singing  I   re – pair,""^3. {" A4 | %1
 G2 E2 c4 | (B2 A2) G2 EF | G4 (A3 G) | E2 D2 E2 G2 |"^}" A4 :| %6
"^There my exalted Savior stands,   My merciful  high priest,  And" A4 | c2 d2 e4 | (d2 c2) d2 e2 | %9
 d4 e4 | c2 A2 c2 e2 | d4 e4 | %12
"^still  extends   his    wounded   hands   To       take  me  to  his  breast." c2 AB c4 | %13
 (B2 A2) G2 EF | G4 (A3 G) | E2 D2 E2 G2 | A8 | %17
V:4
 A,4 | G,2 E,2 C,4 | E,4 D,2 E,F, | G,4 E,4 | C,2 D,2 E,2 E,2 | A,,4 :| A,,4 | C,2 B,,2 A,,4 | %8
 B,,2 C,2 D,2 C,2 | D,4 C,4 | A,,2 A,,2 C,2 C,2 | G,4 A,4 | %12
"^4. What is there here to court my stay,\nTo hold me back from home,\nWhile angels beckon me away,\nAnd Jesus bids me come?\nShall I regret my parted friends\nStill in the vale confin’d?\nNay, but whene’er my soul ascends,\nThey will not stay behind.\n5. The race we all are running now,\nAnd if I first attain,\nThey too their willing head shall bow,\nThey too the prize shall gain:\nNow on the brink of death we stand,\nAnd if I pass before,\nThey all shall soon escape to land,\nAnd hail me on the shore." E,2 D,2 C,4 | %13
 E,4 D,2"^6. Then let me suddenly remove,\nThat hidden life to share;\nI shall not lose my friends above,\nBut more enjoy them there.\nThere we in Jesus’ praise shall join,\nHis boundless love proclaim,\nAnd solemnize in songs divine\nThe marriage of the Lamb.\n7. O what a blessed hope is ours!\nWhile here on earth we stay,\nWe more than taste the heavenly powers,\nAnd antedate that day:\nWe feel the resurrection near,\nOur life in Christ conceal’d,\nAnd with his glorious presence here\nOur earthen vessels filled." E,F, | %14
 G,4 E,4 | %15
"^8. O would he more of heaven bestow,\nAnd let the vessel break,\nAnd let our ransom’d spirits go\nTo grasp the God we seek:\nIn rapturous awe on him to gaze\nWho bought the sight for me,\nAnd shout and wonder at his grace\nThro’ all eternity." C,2 D,2 E,2 E,2 | %16
 A,,8 | %17

